X: 67
T:Battle of Waterloo, the
M:4/4
L:1/8
R:Reel
K:Am
ed/2B/2|"Am"A2 A&gt;B AG GA|"C"c&gt;d ec "Dm"d2 e<G|"AM"A>g ed "Em"ed BA|"G"G&gt;E GA "Em"G2 ed/2B/2|!
"Am"A2 A&gt;B AG GA|"C"c&gt;d ec "Dm"d2 e<G|"AM"A>g ed "Dm"cA "Em"BG|"Am"A2 A&gt;B A2|!
 ef||: "C"g&gt;f ed c&gt;d ef|"C"g&gt;a ge g2 ef/2g/2|"Am"a&gt;g ed "Em"ed BA|"G"G&gt;E GA "Em"G2 ed/2B/2|!
"Am"A2 A&gt;B AG GA|"C"c&gt;d ec "Dm"d2 e<G|"AM"A>g ed "Dm"cA "Em"BG|"Am"A2 A&gt;B A2:||

